X: 15894
T: Gráinne's
R: jig
M: 6/8
K: Gmajor
Bc|:dBF GDB,|G,3 DB,D|EcB (A{B}A)G|FED cBA|
(B/c/dB) ~G3|(E/F/GE) CEG|DGc BDF|1 AGF GBc:|2 AGF G2 A||
|:(B/d/BA) Ggf|eBc ADE|~F3 ~f3|ed^c ({e}d/c/d) =c|
(B/c/d)B Ggf|ecA ~E3|DGc BDF|1 AGF G2 A:|2 AGF G2 D||
|:GBd ~g3|edB cBA|(B/c/d)B a2 g|fd^c def|
gdB Ggf|ecA ~E3|DGc BDF|1 AGF G2 D:|2 AGF GBc||

